flaticon/transportation/truck-4.svg

<svg xmlns="http://www.w3.org/2000/svg" width="32" height="32" viewBox="0 0 24 24">
    <path d="M 23.65625 7.550781 L 10.292969 2.929688 C 10.238281 2.910156 10.183594 2.902344 10.125 2.902344 L 5.320312 2.902344 L 5.320312 3.921875 L 9.617188 3.921875 L 9.617188 6.523438 L 3.621094 6.523438 C 2.742188 6.523438 1.949219 7.078125 1.648438 7.902344 L 0.605469 10.773438 C 0.539062 10.957031 0.5 11.148438 0.484375 11.339844 L 0 17.988281 C -0.0078125 18.128906 0.0390625 18.269531 0.136719 18.371094 C 0.234375 18.476562 0.367188 18.535156 0.511719 18.535156 L 2.289062 18.535156 C 2.535156 19.988281 3.796875 21.097656 5.320312 21.097656 C 6.839844 21.097656 8.105469 19.988281 8.347656 18.535156 L 13.957031 18.535156 C 14.199219 19.988281 15.464844 21.097656 16.984375 21.097656 C 18.503906 21.097656 19.769531 19.988281 20.015625 18.535156 L 23.488281 18.535156 C 23.769531 18.535156 24 18.308594 24 18.023438 L 24 8.035156 C 24 7.816406 23.863281 7.621094 23.65625 7.550781 Z M 1.566406 11.125 L 2.609375 8.253906 C 2.761719 7.828125 3.167969 7.546875 3.621094 7.546875 L 6.453125 7.546875 L 6.453125 12.242188 L 1.445312 12.242188 L 1.503906 11.414062 C 1.511719 11.3125 1.53125 11.21875 1.566406 11.125 Z M 5.320312 20.078125 C 4.1875 20.078125 3.265625 19.15625 3.265625 18.023438 C 3.265625 16.894531 4.1875 15.972656 5.320312 15.972656 C 6.449219 15.972656 7.371094 16.894531 7.371094 18.023438 C 7.371094 19.15625 6.449219 20.078125 5.320312 20.078125 Z M 5.320312 14.953125 C 3.796875 14.953125 2.535156 16.0625 2.289062 17.515625 L 1.058594 17.515625 L 1.367188 13.265625 L 7.472656 13.265625 L 7.472656 7.546875 L 9.617188 7.546875 L 9.617188 17.515625 L 8.347656 17.515625 C 8.105469 16.0625 6.839844 14.953125 5.320312 14.953125 Z M 16.984375 20.078125 C 15.855469 20.078125 14.933594 19.15625 14.933594 18.023438 C 14.933594 16.894531 15.855469 15.972656 16.984375 15.972656 C 18.117188 15.972656 19.035156 16.894531 19.035156 18.023438 C 19.035156 19.15625 18.117188 20.078125 16.984375 20.078125 Z M 22.980469 17.515625 L 20.015625 17.515625 C 19.769531 16.0625 18.503906 14.953125 16.984375 14.953125 C 15.464844 14.953125 14.199219 16.0625 13.957031 17.515625 L 10.636719 17.515625 L 10.636719 4.128906 L 22.980469 8.398438 Z M 22.980469 17.515625"/>
</svg>

<svg xmlns="http://www.w3.org/2000/svg" width="32" height="32" viewBox="0 0 24 24">
    <path d="M23.656 7.55L10.293 2.93a.489.489 0 0 0-.168-.028H5.32v1.02h4.297v2.601H3.621c-.879 0-1.672.555-1.973 1.38l-1.043 2.87a2.19 2.19 0 0 0-.12.567L0 17.988a.51.51 0 0 0 .512.547h1.777a3.077 3.077 0 0 0 3.031 2.563c1.52 0 2.785-1.11 3.028-2.563h5.609a3.073 3.073 0 0 0 3.027 2.563 3.08 3.08 0 0 0 3.032-2.563h3.472a.511.511 0 0 0 .512-.512V8.035a.51.51 0 0 0-.344-.484zm-22.09 3.575L2.61 8.254a1.072 1.072 0 0 1 1.012-.707h2.832v4.695H1.445l.059-.828c.008-.101.027-.195.062-.289zm3.754 8.953a2.057 2.057 0 0 1-2.054-2.055c0-1.128.921-2.05 2.054-2.05 1.13 0 2.051.922 2.051 2.05a2.056 2.056 0 0 1-2.05 2.055zm0-5.125a3.077 3.077 0 0 0-3.03 2.563H1.058l.308-4.25h6.106v-5.72h2.144v9.97h-1.27a3.073 3.073 0 0 0-3.027-2.563zm11.664 5.125a2.056 2.056 0 0 1-2.05-2.055c0-1.128.921-2.05 2.05-2.05a2.053 2.053 0 0 1 0 4.105zm5.996-2.562h-2.964a3.08 3.08 0 0 0-3.032-2.563 3.073 3.073 0 0 0-3.027 2.563h-3.32V4.129l12.343 4.27zm0 0"/>
</svg>
